img/subtract-22.svg

<svg fill="none" height="32" viewBox="0 0 30 32" width="30" xmlns="http://www.w3.org/2000/svg"><path clip-rule="evenodd" d="m21.3504 24.3902c4.0095-.4788 7.5006-2.9492 7.9393-5.2065.6914-3.5559.6343-8.6776.6343-8.6776 0-6.94177-4.5481-8.97651-4.5481-8.97651-2.2931-1.053231-6.2309-1.4961431-10.3219-1.52959h-.1005c-4.0911.0334469-8.02626.476359-10.31961 1.52959 0 0-4.5482571 2.03474-4.5482571 8.97651 0 .4208-.0021752.8635-.0044395 1.3243-.0062887 1.2797-.0132657 2.6995.0237486 4.1815.165166 6.7887 1.244608 13.4793 7.521238 15.1406 2.89402.766 5.37872.9263 7.37982.8163 3.629-.2012 5.6662-1.2951 5.6662-1.2951l-.1197-2.633s-2.5933.8177-5.5058.7181c-2.8855-.099-5.93179-.3112-6.3985-3.854-.0431-.3112-.06465-.6439-.06465-.9934 0 0 2.83265.6924 6.42245.8569 2.1951.1007 4.2537-.1286 6.3444-.3781zm3.2088-4.9398v-8.4053c0-1.71785-.4374-3.08297-1.3158-4.09293-.9062-1.00995-2.0927-1.52769-3.5654-1.52769-1.7042 0-2.9947.65497-3.8478 1.96509l-.8296 1.39046-.8294-1.39046c-.8533-1.31012-2.1437-1.96509-3.8478-1.96509-1.47286 0-2.65937.51774-3.56536 1.52769-.87859 1.00996-1.31598 2.37508-1.31598 4.09293v8.4053h3.33003v-8.1582c0-1.71979.72359-2.59269 2.17091-2.59269 1.6003 0 2.4025 1.03548 2.4025 3.08299v4.4655h3.3104v-4.4655c0-2.04751.802-3.08299 2.4023-3.08299 1.4474 0 2.171.8729 2.171 2.59269v8.1582z" fill="#fff" fill-rule="evenodd"/></svg>

<svg width="30" height="32" viewBox="0 0 30 32" fill="none" xmlns="http://www.w3.org/2000/svg">
<path fill-rule="evenodd" clip-rule="evenodd" d="M21.3504 24.3902C25.3599 23.9114 28.851 21.441 29.2897 19.1837C29.9811 15.6278 29.924 10.5061 29.924 10.5061C29.924 3.56433 25.3759 1.52959 25.3759 1.52959C23.0828 0.476359 19.145 0.0334469 15.054 0H14.9535C10.8624 0.0334469 6.92724 0.476359 4.63389 1.52959C4.63389 1.52959 0.0856329 3.56433 0.0856329 10.5061C0.0856329 10.9269 0.0834577 11.3696 0.0811934 11.8304C0.0749047 13.1101 0.0679277 14.5299 0.104942 16.0119C0.270108 22.8006 1.34955 29.4912 7.62618 31.1525C10.5202 31.9185 13.0049 32.0788 15.006 31.9688C18.635 31.7676 20.6722 30.6737 20.6722 30.6737L20.5525 28.0407C20.5525 28.0407 17.9592 28.8584 15.0467 28.7588C12.1612 28.6598 9.11491 28.4476 8.6482 24.9048C8.6051 24.5936 8.58355 24.2609 8.58355 23.9114C8.58355 23.9114 11.4162 24.6038 15.006 24.7683C17.2011 24.869 19.2597 24.6397 21.3504 24.3902ZM24.5592 19.4504V11.0451C24.5592 9.32725 24.1218 7.96213 23.2434 6.95217C22.3372 5.94222 21.1507 5.42448 19.678 5.42448C17.9738 5.42448 16.6833 6.07945 15.8302 7.38957L15.0006 8.78003L14.1712 7.38957C13.3179 6.07945 12.0275 5.42448 10.3234 5.42448C8.85054 5.42448 7.66403 5.94222 6.75804 6.95217C5.87945 7.96213 5.44206 9.32725 5.44206 11.0451V19.4504H8.77209V11.2922C8.77209 9.57241 9.49568 8.69951 10.943 8.69951C12.5433 8.69951 13.3455 9.73499 13.3455 11.7825V16.248H16.6559V11.7825C16.6559 9.73499 17.4579 8.69951 19.0582 8.69951C20.5056 8.69951 21.2292 9.57241 21.2292 11.2922V19.4504H24.5592Z" fill="white"/>
</svg>
